!!!COM: Palestrina, Giovanni Perluigi da
!!!OPR: Missa Hodie Christus Natus Est
!!!OMD: Kyrie II
!!!OTL: coda
**kern	**kern	**kern	**kern	**kern	**kern	**kern	**kern
*Ibass	*Itenor	*Itenor	*Icalto	*Ibass	*Icalto	*Icant	*Icant
!Bassus	!Tenor 2	!Tenor 1	!Altus	!Bassus	!Altus	!Cantus 2	!Cantus 1
*clefF4	*clefGv2	*clefGv2	*clefG2	*clefF4	*clefG2	*clefG2	*clefG2
*k[]	*k[]	*k[]	*k[]	*k[]	*k[]	*k[]	*k[]
*G:mix	*G:mix	*G:mix	*G:mix	*G:mix	*G:mix	*G:mix	*G:mix
*M3/2	*M3/2	*M3/2	*M3/2	*M3/2	*M3/2	*M3/2	*M3/2
=17	=17	=17	=17	=17	=17	=17	=17
2r	2r	2r	2r	1.C	1.c	1.g	1.cc
2r	2r	2r	2r	.	.	.	.
2C	2c	2e	2g	.	.	.	.
=18	=18	=18	=18	=18	=18	=18	=18
1F	1c	1f	1a	1r	1r	1r	1r
2C	2c	2e	2g	2r	2r	2r	2r
=19	=19	=19	=19	=19	=19	=19	=19
1G	1B	1d	1g	1r	1r	1r	1r
2A	2c	2c	2f#	2r	2r	2r	2r
=20	=20	=20	=20	=20	=20	=20	=20
1.G	1.d	1.B	1.g	2r	2r	2r	2r
.	.	.	.	2r	2r	2r	2r
.	.	.	.	2G	2g	2b	2dd
=21	=21	=21	=21	=21	=21	=21	=21
1r	1r	1r	1r	1c	1g	1ee	1cc
2r	2r	2r	2r	2G	2g	2dd	2b
=22	=22	=22	=22	=22	=22	=22	=22
1r	1r	1r	1r	1d	2f	1dd	1a
.	.	.	.	.	2d	.	.
2r	2r	2r	2r	2A	2e	2cc#	2a
=23	=23	=23	=23	=23	=23	=23	=23
2r	2r	2r	2r	1.d	1.f#	1.dd	1.a
2r	2r	2r	2r	.	.	.	.
2D	2A	2d	2f#	.	.	.	.
=24	=24	=24	=24	=24	=24	=24	=24
1G	1B	1d	1g	1r	1r	1r	1r
2G	2B	2e	2g	2r	2r	2r	2r
=25	=25	=25	=25	=25	=25	=25	=25
2.F	2.c	1f	1.a	1r	1r	1r	1r
4G	4B	.	.	.	.	.	.
2A	2c	2e	.	2r	2r	2r	2r
=26	=26	=26	=26	=26	=26	=26	=26
2B-	1d	2d	2g	2r	2r	2r	2r
1A	.	1e	1a	2r	2r	2r	2r
.	2c#	.	.	2A	2a	2a	2ee
=27	=27	=27	=27	=27	=27	=27	=27
1.D	1.d	1.d	2a	1d	2f	2a	1ff
.	.	.	2r	.	2d	4f	.
.	.	.	.	.	.	4g	.
.	.	.	2r	2d	2f	4a	2ff
.	.	.	.	.	.	4b	.
=28	=28	=28	=28	=28	=28	=28	=28
1r	1r	1r	1r	2.c	2g	2cc	2.ee
.	.	.	.	.	2.e	2g	.
.	.	.	.	4B	.	.	4dd
2r	2r	2r	2r	2A	.	2a	2cc
.	.	.	.	.	4f	.	.
=29	=29	=29	=29	=29	=29	=29	=29
2r	2r	2r	2r	2G	1g	2dd	2b
2r	2r	2r	2r	1d	.	1dd	1a
2D	2d	2d	2a	.	2f#	.	.
=30	=30	=30	=30	=30	=30	=30	=30
1G	1d	1B	1g	2G	2g	2dd	2b
.	.	.	.	2r	2r	1b	2r
2G	2B	2d	2g	2G	2g	.	2dd
=31	=31	=31	=31	=31	=31	=31	=31
1C	1e	1c	1g	1c	1g	2.cc	1ee
.	.	.	.	.	.	4b	.
2c	2e	2c	2g	2C	2g	4g	2cc
.	.	.	.	.	.	4a	.
=32	=32	=32	=32	=32	=32	=32	=32
1B	1d	1G	1g	1G	1g	4b	2dd
.	.	.	.	.	.	4cc	.
.	.	.	.	.	.	2dd	2.gg
2B	2d	2G	2g	2G	[2g	[2gg	.
.	.	.	.	.	.	.	4ff
=33	=33	=33	=33	=33	=33	=33	=33
1c	2c	2c	1g	2C	1g]	4gg]	2ee
.	.	.	.	.	.	4ff	.
.	2e	2.g	.	2c	.	2ee	2cc
2G	[2g	.	2g	2B	2g	2dd	2dd
.	.	4f	.	.	.	.	.
=34	=34	=34	=34	=34	=34	=34	=34
1C	4g]	2e	1g	1c	1.g	1cc	1ee
.	4f	.	.	.	.	.	.
.	2e	2c	.	.	.	.	.
2C	2c	4G	2g	2c	.	2cc	2ee
.	.	4A	.	.	.	.	.
=35	=35	=35	=35	=35	=35	=35	=35
1.G	1.d	1.B	1.g	1.G	1.g	1.b	1.dd
==	==	==	==	==	==	==	==
*-	*-	*-	*-	*-	*-	*-	*-
!!!CDT: 1525/^1526/-1594/2/2
!!!OCY: Italia
!!!AGN: Mass (Parody)
!!!AST: renaissance, vocal
!!!ASW: Motet 1575 (Palestrina)
!!!PWK: Masses, Book 8vce
!!!RNB: Cadence finals: C,D
!!!YOR: Le Opere Complete, v. 30, p. 59
!!!YOO: Rome, Italy: Fratelli Scalera
!!!END: 1992//
!!!EED: John Miller
!!!YEC: Copyright 2000, John Miller
!!!YEN: United States of America
!!!YEM: Rights to all derivative electronic formats reserved.
!!!YEM: Refer to licensing agreement for further details.
!!!YEM: This file must be accompanied by the licensing agreement.
!!!YEM: A copy of the licensing agreement may be found at http://www.music-cog.ohio-state.edu/HumdrumDatabases/Palestrina/license.txt
!!!EMD: converted to Humdrum by Bret Aarden
